X:63
T:Braes of Athole, The
R:Reel
B:The Athole Collection
M:C|
L:1/8
K:G
d|B2 AG B/c/d e/f/g|BAGB A/A/A Ad|B2 AG B/c/d e/f/g|D3B G/G/G G:|
|:f|gdBg dgdB|gdBg f2 Ae/f/|gdBg dgdB|c/B/A/G/ FA G/G/G G:|
|:c|BGBG BG B/c/d|BG B/c/d e/f/g Ac|BG B/c/d e/f/g f/g/a|D3B G/G/G G:|
|:f|gdBg dgdB|g/f/e/d/ Bg f2 Ae/f/|gdBg dgdB|c/B/A/G/ FA G/G/G G:|

